X:168023
T:Bonnie Dundee (Brass)
C:Trad (pre 1825)
H:Bonny Dundee is a very old Scottish folk-tune used for at least fifteen songs.[3] A simpler version of the tune appears in the Skene manuscript around 1630 under the title Adew, Dundee. The title Bonny Dundee for the tune appears in an appendix to John Playford's 1688 edition of The Dancing Master, an English publication.   Bonnie Dundee is the title of a poem and a song written by Walter Scott in 1825 in honour of John Graham, 7th Laird of Claverhouse, who was created 1st Viscount Dundee in November 1688, then in 1689 led a Jacobite rising in which he died, becoming a Jacobite hero.
B: Scots Guards (I.18)
B: Canadian Cadet Program
B: College of Piping Tutor?
O:Kevin Fraser
Z:Kevin Fraser
Q:3/8=90
K:HP
M:6/8
L:1/8
R:March
U: R = ///
U: r = //
U: V = !accent!
V:M gstem=up stem=down name="Melody" 
V:H gstem=up stem=down name="Harmony"
V:C gstem=up stem=down name="C-Harmony"
V:S gstem=up stem=down dyn=up stafflines=1 clef=perc middle=G name="Snare" sname="Snare"" sname="Snare"
V:B gstem=up stem=down clef=none dyn=up name="Bass"
V:T gstem=up stem=down clef=none dyn=up name="Tenor"
I:MIDI=program 110
%%MIDI gracedivider 4
T:Bonnie Dundee
%%MIDI program 109 #bagpipes
%%MIDI vol 100
%%Concert   Bb   Eb  F
%%0 (C)     2    3  1
%%1b (F)   1#    2# 0
%%2b       0     1#  1b
V:TT clef=treble  transpose=-13 name="Trombone" sname="Trombone" 
V:Tr clef=treble transpose=-3 name="Trumpet" sname="Bb Inst" % Clarinet trumpet tenor sax
V:BB clef=treble transpose=-3 name="Bb Instruments" sname="Bb" % Clarinet trumpet tenor sax
V:BE clef=treble transpose=-8 name="Eb Instruments" sname="Eb" %Concert C sounds like Eb  Alto Sax baritone sax
V:BF clef=treble transpose=-6 name="F Instruments" sname="F" %Concert C sounds like F French Horn
V:BC transpose=-1 name="Concert" sname="C" %flute oboe bassoon trombone tuba 
K:Dmix
V:TT
K:Amix
|:z | f2f f2f | f2f f2e | f2z f2z | c2d c2z $
V:TT
 | f2z f2z | f2z g2a | f2z f2z | B2B B2 :| $
V:TT
 |:z | B2z e2z | c2z c3 | c2z c2z | d2z d3 | $
V:TT
 | d2z e2z | f2z g3 | f2z f2z | B2f B2 :|

